X:21
T:Tom Billy's
R:jig
H:Similar to "The Walls of Liscarrol", #136
D:Mary Bergin: Feadoga Stain.
D:De Dannan: Selected reels and jigs
Z:id:hn-jig-21
M:6/8
K:Amix
~a3 ece|edB BAB|Aaa Ace|dcB Ace|~a3 ece|edB BAF|GBd ged|1 edB Ace:|2 edB A2f||
|:~g3 ~a3|bag fed|faf g2d|BAB def|~g3 ~a3|bge gab|age dBe|1 ABA A2f:|2 ABA A2B||
|:~c3 edd|edB dBA|~A3 dBA|~A3 aed|~c3 dcd|ede gab|age dBe|1 ABA A2B:|2 ABA Ace||

